X: 100297
T: MRS. SCOTT SKINNER -- Reel
C: By J. McQueen, Forres
R: reel
B: K\"ohler's Violin Repository, v.3, 1885 p.215 #3
F: http://www.archive.org/details/klersviolinrepos03rugg
Z: 2012 John Chambers <jc:trillian.mit.edu>
M: C|
L: 1/8
K: C
ug |\
ec c/c/c (cG)EG | FD D/D/D (FD)DF | ec c/c/c (cG)EG |[1 ECDB, C3 :|[2 EcdB c2(c ||
uG) |\
(cB)ca (ge)cB | BGBd BGGB | (cB)ca (ge)cB | (Bc)dB c2cG |
(cB)ca (ge)cB | BdBd BGGE | (FE)FG (AG)Ac | (Bc)dB c2"_Fine."uc "^D.C."|]

%%sep 2 1 500

